icons/1_Primary/Greenview Data.svg

<svg width="1024" height="1024" viewBox="0 0 1024 1024" fill="none" xmlns="http://www.w3.org/2000/svg">
<g clip-path="url(#clip0_2_2337)">
<path d="M512 1024C794.77 1024 1024 794.77 1024 512C1024 229.23 794.77 0 512 0C229.23 0 0 229.23 0 512C0 794.77 229.23 1024 512 1024Z" fill="#98DC9A"/>
<path d="M767.92 568.41C767.056 590.745 761.664 612.672 752.07 632.86C737.48 663.81 713.71 689.97 685.53 709.16C647.7 735 602.25 748.8 556.64 750.65C530.36 750.89 504.07 750.71 477.8 750.74C477.8 722.38 477.85 694.02 477.8 665.65H546.59C579.59 665.25 613 655.74 639.42 635.58C660.76 619.58 677.12 596 681.42 569.4C684.326 551.389 681.827 532.921 674.24 516.33C665.07 495.97 649.02 479.21 630.24 467.33C605.3 451.55 575.67 443.74 546.24 443.81C546.18 449.47 546.24 455.14 546.24 460.81C523.426 460.843 500.616 460.843 477.81 460.81V375.67C498.89 375.22 520.05 375.5 541.17 375.51C590.55 374.67 640.56 387.68 682.02 414.85C710.69 433.61 735.16 459.36 750.46 490.15C762.68 514.385 768.68 541.279 767.92 568.41ZM509.78 648.28H546.23V629.28C546.17 578.8 546.17 528.317 546.23 477.83H477.82V563.21C468.535 563.098 459.27 562.309 450.1 560.85C418.1 555.4 387.04 540.33 365.75 515.44C352.28 499.73 343.18 479.95 341.75 459.2C339.82 436.27 347.36 413.08 361.2 394.85C378.12 372.18 403.28 356.54 430.2 348.49C446.91 343.22 464.49 341.37 481.96 341.4H546.2C546.153 318.687 546.153 295.973 546.2 273.26C519.94 273.26 493.68 273.19 467.42 273.26C444.894 274.13 422.582 277.966 401.06 284.67C363.51 296.35 328.46 317.23 301.9 346.43C288.83 360.777 278.114 377.102 270.15 394.8C258.49 421.11 253.57 450.55 257.09 479.17C259.665 500.878 266.514 521.862 277.24 540.91C300.24 582.12 339.15 612.98 382.64 630.32C390.674 633.579 398.884 636.39 407.23 638.74C423.927 643.414 441.036 646.468 458.32 647.86C461.75 648.1 465.18 648.21 468.61 648.26H509.75L509.78 648.28Z" fill="white"/>
</g>
<defs>
<clipPath id="clip0_2_2337">
<rect width="1024" height="1024" fill="white"/>
</clipPath>
</defs>
</svg>

<svg xmlns="http://www.w3.org/2000/svg" width="1024" height="1024" fill="none">
   <g clip-path="url(#a)">
      <path fill="#98DC9A" d="M512 1024c282.77 0 512-229.23 512-512S794.77 0 512 0 0 229.23 0 512s229.23 512 512 512Z"/>
      <path fill="#fff" d="M767.92 568.41a165.014 165.014 0 0 1-15.85 64.45c-14.59 30.95-38.36 57.11-66.54 76.3-37.83 25.84-83.28 39.64-128.89 41.49-26.28.24-52.57.06-78.84.09 0-28.36.05-56.72 0-85.09h68.79c33-.4 66.41-9.91 92.83-30.07 21.34-16 37.7-39.58 42-66.18a92.27 92.27 0 0 0-7.18-53.07c-9.17-20.36-25.22-37.12-44-49-24.94-15.78-54.57-23.59-84-23.52-.06 5.66 0 11.33 0 17-22.814.033-45.624.033-68.43 0v-85.14c21.08-.45 42.24-.17 63.36-.16 49.38-.84 99.39 12.17 140.85 39.34 28.67 18.76 53.14 44.51 68.44 75.3a163.644 163.644 0 0 1 17.46 78.26Zm-258.14 79.87h36.45v-19c-.06-50.48-.06-100.963 0-151.45h-68.41v85.38a191.088 191.088 0 0 1-27.72-2.36c-32-5.45-63.06-20.52-84.35-45.41-13.47-15.71-22.57-35.49-24-56.24-1.93-22.93 5.61-46.12 19.45-64.35 16.92-22.67 42.08-38.31 69-46.36 16.71-5.27 34.29-7.12 51.76-7.09h64.24c-.047-22.713-.047-45.427 0-68.14-26.26 0-52.52-.07-78.78 0a256.404 256.404 0 0 0-66.36 11.41c-37.55 11.68-72.6 32.56-99.16 61.76a183.859 183.859 0 0 0-31.75 48.37c-11.66 26.31-16.58 55.75-13.06 84.37a165.585 165.585 0 0 0 20.15 61.74c23 41.21 61.91 72.07 105.4 89.41a234.494 234.494 0 0 0 24.59 8.42 269.901 269.901 0 0 0 51.09 9.12c3.43.24 6.86.35 10.29.4h41.14l.03.02Z"/>
   </g>
   <defs>
      <clipPath id="a">
         <path fill="#fff" d="M0 0h1024v1024H0z"/>
      </clipPath>
   </defs>
</svg>
